X:21175 
T:RUNAWAY JIG, The 
B:DMI.0339
Z:Nordberg/Black
R:jig
%Q:1/4=160
M:6/8
L:1/8
K:D
A2F F2A|d3 cBA|B2G G2A|B2A Bcd|
A2F F2A|d3 cBA|Bcd ecA|1 d3 dcB:|\
[2 d3 d2||
A|d2e f2d|g2e f2d|ecA AcA|ecA AcA|
d2e f2d|g2e f2d|ecA ABc|d3d2:|

%%%

